src/assets/images/raygun.svg

<svg viewBox="0 0 576 512" xmlns="http://www.w3.org/2000/svg"><path d="m111.95117 151.98283a23.997 23.997 0 1 0 24.002 23.99607 23.99826 23.99826 0 0 0 -24.002-23.99607zm96.00977 0a23.997 23.997 0 1 0 24.00195 23.99607 23.99827 23.99827 0 0 0 -24.00195-23.99607zm112.07226-119.98619h-16.002a15.99912 15.99912 0 0 0 -16 15.998v27.25977a110.46265 110.46265 0 0 0 -48.06636-11.26171h-48.00584l-104.79884-62.28313a15.99888 15.99888 0 0 0 -23.1543 14.30858l-.04492 59.18938c-37.71289 18.02347-63.96094 56.1933-63.96094 100.77137 0 55.27923 40.14844 100.92176 92.82812 110.05456l-70.41992 121.91783a47.93739 47.93739 0 0 0 17.59571 65.58586l55.41209 31.99606a47.92475 47.92475 0 0 0 65.60156-17.59178l120.08791-208.01143c2.45117-.9707 4.56445-2.51562 6.92578-3.65429v27.68747a15.99911 15.99911 0 0 0 16 15.998h16.002a15.99828 15.99828 0 0 0 16.002-15.998v-255.96851a15.99829 15.99829 0 0 0 -16.00205-15.99803zm-200.60742 431.97607-55.44531-32.01949 70.41992-121.91979 12.74609-22.06833h73.89258zm168.60547-246.18917a63.61105 63.61105 0 0 1 -48.06641 22.18746h-128.01367a63.99211 63.99211 0 1 1 0-127.98422h128.01367a63.61105 63.61105 0 0 1 48.06641 22.18747zm266.90625-98.77137-74.9355 24.97067h-63.959v-63.99211a15.99787 15.99787 0 0 0 -16-15.998h-16.002a15.99953 15.99953 0 0 0 -16.002 15.998v191.97634a15.99953 15.99953 0 0 0 16.002 15.998h16.002a15.99787 15.99787 0 0 0 16-15.998v-63.99207h64.07617l74.8125 24.97067a16.00209 16.00209 0 0 0 21.06833-15.1758v-83.58194a16.0008 16.0008 0 0 0 -21.0625-15.17576z"/></svg>

<svg xmlns="http://www.w3.org/2000/svg" viewBox="0 0 576 512"><!-- Font Awesome Pro 5.15.3 by @fontawesome - https://fontawesome.com License - https://fontawesome.com/license (Commercial License) --><path d="M111.95117,151.98283a23.997,23.997,0,1,0,24.002,23.99607A23.99826,23.99826,0,0,0,111.95117,151.98283Zm96.00977,0a23.997,23.997,0,1,0,24.00195,23.99607A23.99827,23.99827,0,0,0,207.96094,151.98283ZM320.0332,31.99664h-16.002a15.99912,15.99912,0,0,0-16,15.998V75.25441A110.46265,110.46265,0,0,0,239.96484,63.9927H191.959L87.16016,1.70957a15.99888,15.99888,0,0,0-23.1543,14.30858l-.04492,59.18938C26.24805,93.231,0,131.40083,0,175.9789c0,55.27923,40.14844,100.92176,92.82812,110.05456L22.4082,407.95129a47.93739,47.93739,0,0,0,17.59571,65.58586L95.416,505.53321a47.92475,47.92475,0,0,0,65.60156-17.59178L281.10547,279.93c2.45117-.9707,4.56445-2.51562,6.92578-3.65429v27.68747a15.99911,15.99911,0,0,0,16,15.998h16.002a15.99828,15.99828,0,0,0,16.002-15.998V47.99467A15.99829,15.99829,0,0,0,320.0332,31.99664ZM119.42578,463.97271,63.98047,431.95322l70.41992-121.91979,12.74609-22.06833h73.89258ZM288.03125,217.78354A63.61105,63.61105,0,0,1,239.96484,239.971H111.95117a63.99211,63.99211,0,1,1,0-127.98422H239.96484a63.61105,63.61105,0,0,1,48.06641,22.18747ZM554.9375,119.01217,480.002,143.98284H416.043V79.99073a15.99787,15.99787,0,0,0-16-15.998H384.041a15.99953,15.99953,0,0,0-16.002,15.998V271.96707a15.99953,15.99953,0,0,0,16.002,15.998h16.002a15.99787,15.99787,0,0,0,16-15.998V207.975h64.07617l74.8125,24.97067A16.00209,16.00209,0,0,0,576,217.76987V134.18793A16.0008,16.0008,0,0,0,554.9375,119.01217Z"/></svg>
